svg/fluentui-system-icons/ic_fluent_content_view_24_regular.svg

<svg width="24" height="24" viewBox="0 0 24 24" fill="none" xmlns="http://www.w3.org/2000/svg">
<path d="M3 6.25C3 4.45507 4.45507 3 6.25 3H17.75C19.5449 3 21 4.45507 21 6.25V17.75C21 19.5449 19.5449 21 17.75 21H6.25C4.45507 21 3 19.5449 3 17.75V6.25ZM6.25 4.5C5.2835 4.5 4.5 5.2835 4.5 6.25V17.75C4.5 18.7165 5.2835 19.5 6.25 19.5H17.75C18.7165 19.5 19.5 18.7165 19.5 17.75V6.25C19.5 5.2835 18.7165 4.5 17.75 4.5H6.25ZM6 8.25C6 7.2835 6.7835 6.5 7.75 6.5H16.25C17.2165 6.5 18 7.2835 18 8.25V9.75C18 10.7165 17.2165 11.5 16.25 11.5H7.75C6.7835 11.5 6 10.7165 6 9.75V8.25ZM7.75 8C7.61193 8 7.5 8.11193 7.5 8.25V9.75C7.5 9.88807 7.61193 10 7.75 10H16.25C16.3881 10 16.5 9.88807 16.5 9.75V8.25C16.5 8.11193 16.3881 8 16.25 8H7.75ZM6.75 13C6.33579 13 6 13.3358 6 13.75C6 14.1642 6.33579 14.5 6.75 14.5H11.25C11.6642 14.5 12 14.1642 12 13.75C12 13.3358 11.6642 13 11.25 13H6.75ZM6 16.75C6 16.3358 6.33579 16 6.75 16H11.25C11.6642 16 12 16.3358 12 16.75C12 17.1642 11.6642 17.5 11.25 17.5H6.75C6.33579 17.5 6 17.1642 6 16.75ZM15.25 13C14.2835 13 13.5 13.7835 13.5 14.75V15.75C13.5 16.7165 14.2835 17.5 15.25 17.5H16.25C17.2165 17.5 18 16.7165 18 15.75V14.75C18 13.7835 17.2165 13 16.25 13H15.25ZM15 14.75C15 14.6119 15.1119 14.5 15.25 14.5H16.25C16.3881 14.5 16.5 14.6119 16.5 14.75V15.75C16.5 15.8881 16.3881 16 16.25 16H15.25C15.1119 16 15 15.8881 15 15.75V14.75Z" fill="#212121"/>
</svg>

<svg xmlns="http://www.w3.org/2000/svg" width="24" height="24"><path d="M3 6.25A3.25 3.25 0 0 1 6.25 3h11.5A3.25 3.25 0 0 1 21 6.25v11.5A3.25 3.25 0 0 1 17.75 21H6.25A3.25 3.25 0 0 1 3 17.75V6.25ZM6.25 4.5A1.75 1.75 0 0 0 4.5 6.25v11.5c0 .966.784 1.75 1.75 1.75h11.5a1.75 1.75 0 0 0 1.75-1.75V6.25a1.75 1.75 0 0 0-1.75-1.75H6.25ZM6 8.25c0-.966.784-1.75 1.75-1.75h8.5c.966 0 1.75.784 1.75 1.75v1.5a1.75 1.75 0 0 1-1.75 1.75h-8.5A1.75 1.75 0 0 1 6 9.75v-1.5ZM7.75 8a.25.25 0 0 0-.25.25v1.5c0 .138.112.25.25.25h8.5a.25.25 0 0 0 .25-.25v-1.5a.25.25 0 0 0-.25-.25h-8.5Zm-1 5a.75.75 0 0 0 0 1.5h4.5a.75.75 0 0 0 0-1.5h-4.5ZM6 16.75a.75.75 0 0 1 .75-.75h4.5a.75.75 0 0 1 0 1.5h-4.5a.75.75 0 0 1-.75-.75ZM15.25 13a1.75 1.75 0 0 0-1.75 1.75v1c0 .966.784 1.75 1.75 1.75h1A1.75 1.75 0 0 0 18 15.75v-1A1.75 1.75 0 0 0 16.25 13h-1ZM15 14.75a.25.25 0 0 1 .25-.25h1a.25.25 0 0 1 .25.25v1a.25.25 0 0 1-.25.25h-1a.25.25 0 0 1-.25-.25v-1Z"/></svg>
